frontend/public/assets/material-icons/folder-prisma.svg

<svg xmlns="http://www.w3.org/2000/svg" viewBox="0 0 32 32">
  <path d="M13.84376,7.53645l-1.28749-1.0729A2,2,0,0,0,11.27591,6H4A2,2,0,0,0,2,8V24a2,2,0,0,0,2,2H28a2,2,0,0,0,2-2V10a2,2,0,0,0-2-2H15.12412A2,2,0,0,1,13.84376,7.53645Z" style="fill: #00bfa5;fill-rule: evenodd"/>
  <path d="M30.20863,26.27481,20.449,28.66559a.42344.42344,0,0,1-.50932-.225.29553.29553,0,0,1-.01256-.16447l3.48605-13.82672a.34784.34784,0,0,1,.4123-.21049.33549.33549,0,0,1,.221.14964L30.503,25.74068a.36172.36172,0,0,1-.21779.51057A.50549.50549,0,0,1,30.20863,26.27481Zm1.67223-.56389L24.406,12.56709a1.33466,1.33466,0,0,0-1.64729-.45284,1.17924,1.17924,0,0,0-.46725.35684L14.18491,23.3445a.87141.87141,0,0,0,.01432,1.09126l3.96337,5.08309a1.40683,1.40683,0,0,0,1.432.43543l11.50348-2.81673a1.21577,1.21577,0,0,0,.79077-.5666A.86074.86074,0,0,0,31.88086,25.71092Z" style="fill: #a7ffeb;fill-rule: evenodd"/>
</svg>

<svg xmlns="http://www.w3.org/2000/svg" viewBox="0 0 32 32"><path fill="#00bfa5" d="m13.844 7.536-1.288-1.072A2 2 0 0 0 11.276 6H4a2 2 0 0 0-2 2v16a2 2 0 0 0 2 2h24a2 2 0 0 0 2-2V10a2 2 0 0 0-2-2H15.124a2 2 0 0 1-1.28-.464"/><path fill="#a7ffeb" d="m30.209 26.275-9.76 2.39a.42.42 0 0 1-.51-.224.3.3 0 0 1-.012-.165l3.486-13.827a.35.35 0 0 1 .412-.21.34.34 0 0 1 .221.15l6.457 11.352a.362.362 0 0 1-.218.51zm1.672-.564-7.475-13.144a1.335 1.335 0 0 0-1.647-.453 1.2 1.2 0 0 0-.468.357l-8.106 10.873a.87.87 0 0 0 .014 1.092l3.964 5.083a1.41 1.41 0 0 0 1.432.435l11.503-2.816a1.22 1.22 0 0 0 .79-.567.86.86 0 0 0-.007-.86"/></svg>
